X:30
T:Collier's Daughter (The Duke of Rutland's Delight)
M:4/4
L:1/8
K:Gdor
dc |\
B2G2 G2G2 | G4 D4 | D2F4 F2   | A2 c4 dc |\
B2G2 G2G2 | G4 D4 | cBAG cBAG | B2G :|
|: ef |\
gfed cded | c4   f4   | cBAG FGAB | A4 c4 |\
B2G2 A2D2 | B2G2 A2D2 | gfef g2G2 | B2 d6 :|
